build/category/BurnSolid.svg

<svg xmlns="http://www.w3.org/2000/svg" fill="none" viewBox="0 0 24 24" focusable="false"><path d="M0 0H24V24H0z"/><path fill="#74767B" fill-rule="evenodd" d="M12 21C15.866 21 19 18 19 14.112C19 10.8935 16.8391 9.24171 15.3046 8.0688C14.8786 7.74317 14.5009 7.45445 14.2312 7.17937C13.3833 6.31484 12.9118 5.37105 12.8856 4.07035C12.8721 3.39862 12.0556 2.91604 11.5535 3.36242C6.25494 8.07263 5 11.1376 5 14.112C5 18 8.13401 21 12 21ZM9.35605 17.1354C9.35605 18.0614 9.65559 18.6804 10.0402 19.0647C10.4296 19.4537 11.0036 19.6999 11.7287 19.6999C12.3201 19.6999 12.998 19.3923 13.5555 18.7942C14.1085 18.2011 14.4421 17.4257 14.4421 16.6696C14.4421 15.8766 14.3485 15.2608 13.917 14.4686C13.5651 13.8224 12.9725 13.0313 11.9568 11.9632C11.7466 12.5415 11.4298 13.0711 11.0186 13.5668L10.9582 13.6395C10.1133 14.6571 9.35605 15.5692 9.35605 17.1354Z"/></svg>

<svg xmlns="http://www.w3.org/2000/svg" fill="none" viewBox="0 0 24 24" focusable="false"><path fill="#74767B" fill-rule="evenodd" d="M12 21c3.86 0 7-3 7-6.89 0-3.22-2.17-4.87-3.7-6.05-.43-.32-.8-.61-1.07-.89-.85-.86-1.32-1.8-1.35-3.1-.01-.68-.83-1.16-1.33-.71C6.25 8.07 5 11.13 5 14.11 5 18 8.13 21 12 21m-2.65-3.87c0 .93.3 1.55.69 1.93.38.39.96.64 1.68.64.6 0 1.27-.31 1.83-.91.55-.59.89-1.37.89-2.13 0-.79-.1-1.4-.53-2.2-.35-.64-.94-1.43-1.96-2.5-.21.58-.53 1.11-.94 1.6l-.06.07c-.84 1.02-1.6 1.93-1.6 3.5"/></svg>
